X:1
T:Cara dolce
T:Cara dolce
T:Piero Benedetti
T:Source : Musische di Piero Benedetti---Fiorenza---Heredes di C.Marescotti---1611. Editor : André Vierendeels (25/05/15).
T:Notes : Original clefs : C1, F4 Figures in BC are notated in original print
C:Piero Benedetti
%%score 1 2
L:1/8
Q:1/4=80
M:4/4
K:F
V:1 treble nm="Soprano" snm="S"
V:2 bass nm="BC" snm="BC"
V:1
 d3 G B2 cB | A4 A4 | ^FF A4 E>F | D4 D4 | z c B>A c3 F | G4 G4 | z d B>A A4 | A2 Bc d4- | %8
w: Ca- ra * ce mia|spe- me,|og- gi pur m'ab- ban-|do- ni,|ne piu nel cor _|mi- suon|in dol- ce pre-|mio di lia lun-|
 d3 F E4 | D8 | z2 f4 _ed | c3 c d4 | d4 z2 cG | B2 BG A4 | z c d2- d3 G | A4 A4 | z Bcd _e3 B | %17
w: * ga fe-|de,|ah se pur|vuol mia for-|te ch'al- tri|d'o- gni mio ben|si fac- * cia|cre- de|è non m'ac- col- ga|
 cd _e3 G G2- | G6 ^F2 | z c c3 =B B2- | BG G3 GGG | G4 F4 | z2 Bc d2 _ec | d2 d2 z2 Bc | %24
w: per pie- ta la mor-|* ta,|vi- vrom- m'in duol|_ mia vi ta con- su-|man- do|è lan- guen- 'et a-|man- do, men- tr'il|
 d2 BA B3 G | G/F/G/A/ B2 B/c/d/e/ f2 | c4 c2 d2- | d6 BG | A4 A4 | z =BBB B3 A | A8 | G8 :| %32
w: sol vo- ge- ra suo|ca- * * * ro'in- * * * * *|tor- no,- pian-|* ge- ro|sem- pre,|in si fu- * *|gior-|no.|
V:2
 G,4 _E,2 C,2 |"^#""^#" D,4 D,4 |"^#" D,4 A,,4 | D,8 | F,8 | C,8 | G,4 D,4 | %7
 D,4 G,,/A,,/=B,,/G,,/ D,/E,/^F,/D,/ | G,A,B,G, A,2 A,2 | D,8 | B,4 _E,4 | _E,4 D,4 | D,4 C,4 | %13
 G,,4 D,4 | F,4 _E,4 | D,8 | B,4 G,4 | C,4 G,4 | =B,,2 ^C,2 D,4 | E,4 ^F,4 | =B,,4 ^C,4- | %21
 C,4 D,4 | B,,8 | B,,4 B,,4 | B,,8 | B,,2 _E,2 D,4 | F,4 F,4 | _E,2 ^F,,2 G,,4 |"^#" D,8 | %29
 =B,,4 C,4 |"^4""^#" D,4 D,4 | G,,8 :| %32

